X:121
T: LINCHEN GING EINMAL SPAZIEREN
N: E0712A
O: Europa, Mitteleuropa, Deutschland, Uckermark
R: Liebes - Lied, Leid, Klage
M: 2/4
L: 1/16
K: A
 | E2A2A2A2 | G2B2A2E2 |
A2A2c2ec | B4z4 |
d2d2d2cB | c2e2A2A2 |
BdcBA2G2 | A4z4

